!!!OTL: WO BLUEHEN DIE BLUMEN SO SCHOEN
!!!ARE: Europa, Mitteleuropa, Deutschland, Hochwald, Hellertshausen
!!!SCT: B0535
!!!YEM: Copyright 1995, estate of Helmut Schaffrath.
**kern
*ICvox
*Ivox
*M6/8
*k[b-]
*F:
{8c
=1
8.c
16d
8c
8f
8e
8d
=2
4.c
4r}
{8c
=3
8.B-
16A
8B-
8d
8c
8B-
=4
4.A
4r}
{8A
=5
8.A
16B-
8c
8f
8e
8d
=6
4.c
4r}
{8c
=7
8.Bn
16c
8d
8.f
16e
8d
=8
4.c
4r}
{8c
=9
8.e
16d
8c
8.e
16d
8c
=10
4e
8d
4c}
{8A
=11
8c
8A
8F
4G
16G
16A
=12
8.B-
16G
16A
16F
4c}
{8c
=13
4f
8d
4c
8c
=14
8.d
16c
16G
16B-
4A}
==
!!!AGN: Wander -, Heimat - Lied
!!!ONB: ESAC (Essen Associative Code) Database: BOEHME
!!!AMT: compound duple
!!!AIN: vox
!!!EED: Helmut Schaffrath
!!!EEV: 1.0
*-
